X:1
T:Title
%%score 1 { 2 | 3 }
L:1/8
Q:1/4=103
M:6/8
K:Ab
V:1 treble nm="Grand Piano, Soprano"
V:2 bass nm="Choir Pad, Meet at the Beautiful Gate"
V:3 bass 
V:1
 [CE] [EA]2 [EA] [DF]2 | [CE] [EA]2 [EA] [Ac]2 | [Ac] [Ae]2 [Ae] [Ac]2 | A [GB]2- [GB]2- [GB]/ z/ | %4
w: By~William~A.~Stewart * * *||||
 [Ac] [Ae]2 [Ae] [Ac]2 | [GB] [FA]2 [GB] [Ac]2 | [Ae] [Ac]2 A [Ac]2 | [EB] [EA]2- [EA]2- [EA]/ z/ | %8
w: ||||
 z [Ec]>[Ec] [Ec] [Ae]2 | [Af] [Ae]2 A [Ac]2- | [Ac][Ac]>[Ac] [Ac] [Ae]2 | [Ac] [GB]2- [GB]3- | %12
w: ||||
 [GB][Ac]>[Ac] [Ac][ce][ce]- | [ce] [EA]2 [EA] [Ac]2 | [Ae] [Ac]2 A [Ac]2 | [GB] A2- A3- | A3 z3 |] %17
w: |||||
V:2
 A, C2 C A,2 | A,[K:treble] C2 C E2 | E C2 C E2 | E E2- E2- E/ z/ | E C2 C E2 | D C2 E E2 | %6
 C A,2 C E2 | D C2- C2- C/ z/ | z[K:bass] A,>A, A, C2 | D[K:treble] C2 C E2- | EE>E E C2 | %11
 E E2- E3- | EE>E EEE- | E C2 C E2 | C A,2 C E2 | D C2- C3- | C3 z3 |] %17
V:3
 z A,2 .A,3 | z A,2 A, A,2 | A, A,2 A, A,2 | C, E,2- E,2- E,/ z/ | A, A,2 A, A,2 | E, F,2 E, A,2 | %6
 .A,3 F, E,2 | E, [A,,A,]2- [A,,A,]2- [A,,A,]/ z/ | z3 z A,2 | A, A,2 A, A,2- | A,A,>A, A, A,2 | %11
 A, E,2- E,3- | E,A,>A, A,A,A,- | A, A,2 A, A,2 | .A,3 F, E,2 | E, A,2- A,3- | A,3 z3 |] %17

